X:7819
T:Upstairs at .....
O:england
R:Jig
M:6/8
L:1/8
K:EDor
L:1/8
BEF GBd|EFG Bdc|c2e dcA|ccc ced|
BEF GBd|EFG Bdc|c2e dcA|1 fed edA:|2 fed efg|
eBd efe|fed B2A|gBd edB|c2A Bcd|
edB A2A|GBB BGE|ABc cde|fed efg:|
aBd cBA|Bdf edB|cBA FcF|dFc Bdf|
aBd cBA|Bdf edB|cBA E2E|1 edA Bde:|2 edA B3||


